X: 873
T: Gönül Adlı Bülbülüm Var
C: Dellalzâde İsmail Efendi
O: Turkey
F: http://compmusic.upf.edu/node/140
N: mahur--sarki--aksak--gonul_adli--dellalzade_haci_ismail_efendi
N: makam= mahur
N: form= sarki
N: usul= aksak = 9/8
M: 9/8
L: 1/16
K: C ^9/8f   
Q: 1/4=204
%%MIDI tuningsystem comma53
g8 d8 z2 | B8G8z2  | c'8 a8 z2 | d4e2 f2g2 f2g6  | \
w:  ARANAĞME  |   |   |   | 
d8 g8 z2 | c8e8z2  | 
w:   |   | 
d2e2 =f2e2 d2c2 B2^A2 c2 | B16z2  | d8 B8 z2 | \
w:   |   |   | 
c8A8z2  | cBA2 B4 BAG2 A2G2 F2 | 
w:   |   | 
G16z2  | g8 d8 z2 | B8G8z2  | c'8 a8 z2 | d4e2 f2g2 f2g6  | \
w:   |  ARANAĞME  |   |   |   | 
d8 g8 z2 | c8e8z2  | 
w:   |   | 
d2e2 =f2e2 d2c2 B2^A2 c2 | B16z2  | d8 B8 z2 | \
w:   |   |   | 
c8A8z2  | cBA2 B4 BAG2 A2G2 F2 | 
w:   |   | 
G6 d2e2 f2g6  | z4 g2a2 g2f2 e4 d2 | \
w:   |  Gö nül_ ad *  lı   | 
z2 d4 d2d4e4dc  | c4 g2a2 g2f2 g2a4 | 
w:  bül bü lüm  var   |  *  yâr  *  ol *  ma ğa   | 
z2 e4 g2f3ed4c'2  | c'2ba b2ag a2gf g6 | \
w:  gül  *  is *  ti  |  yor    | 
z4g2 a2g2 f2e4d2  | 
w:  Gö nül_ ad *  lı   | 
z2d4d2 d4 e4 dc | c4g2 a2g2 f2g2 a4  | \
w:  bül bü lüm  var   |  *  yâr  *  ol *  ma ğa   | 
z2e4g2 f3e d4 c'2 | 
w:  gül  *  is *  ti  | 
c'2 bab2 aga2 gfg6  | z4 g2a2 g2f2 e4 d2 | \
w:  yor    |  Ka şı  ka *  ra   | 
z2 d4 d2d2 _edgf edcB  | 
w:  çeş mi  si *  *  yah   | 
c4 B2c2 d4 d4 e2 | d2 c2B2 A2G4c6  | \
w:  *  per çe mi  sün  |  bül  *  *  *  is ti  | 
cBA2 BAG2 AGF2 G6 | 
w:  yor    | 
z4g2 a2g2 f2e4d2  | z2d4d2 d2_ed gfed cB | \
w:  Ka şı  ka *  ra   |  çeş mi  si *  *  yah   | 
c4B2 c2d4d4e2  | 
w:  *  per çe mi  sün  | 
d2c2 B2A2 G4 c6 | cB A2BA G2AG F2G6  | \
w:  bül  *  *  *  is ti  |  yor    | 
G2G4A2 A4 A6 | 
w:  Gö nül *  dür  bu   | 
G3FE4B3AB4AG  | G4 g2a2 g2f2 e4 d2 | \
w:  ar *  zu  ey *  ler   |  *  lût fu nu *  zu   | 
d2 c2B2 A2G4c6  | 
w:  ri *  *  *  ca  ey  | 
cBA2 BAG2 AGF2 G6 | G2 G4 A2A4A6  | G3F E4 B3A B4 AG | 
w:  ler    |  Gö nül *  dür  bu   |  ar *  zu  ey *  ler   | 
G4g2 a2g2 f2e4d2  | d2c2 B2A2 G4 c6 | \
w:  *  lût fu nu *  zu   |  ri *  *  *  ca  ey  | 
cB A2BA G2AG F2G6  | 
w:  ler    | 
g8 d8 z2 | B8G8z2  | c'8 a8 z2 | d4e2 f2g2 f2g6  | \
w:  ARANAĞME  |   |   |   | 
d8 g8 z2 | c8e8z2  | 
w:   |   | 
d2e2 =f2e2 d2c2 B2^A2 c2 | B16z2  | d8 B8 z2 | \
w:   |   |   | 
c8A8z2  | cBA2 B4 BAG2 A2G2 F2 | 
w:   |   | 
G16z2  | g8 d8 z2 | B8G8z2  | c'8 a8 z2 | d4e2 f2g2 f2g6  | \
w:   |  ARANAĞME  |   |   |   | 
d8 g8 z2 | c8e8z2  | 
w:   |   | 
d2e2 =f2e2 d2c2 B2^A2 c2 | B16z2  | d8 B8 z2 | \
w:   |   |   | 
c8A8z2  | cBA2 B4 BAG2 A2G2 F2 | 
w:   |   | 
G6 d2e2 f2g6  | z2g2 a4 g2f2 e4 d2 | \
w:   |  Ha yâl_ i  *  aşk   | 
z2 d2d4d4e4dc  | c4 g2a2 g2f2 g2a4 | 
w:  i çin  bül bül   |  *  fik ri  zik *  ri   | 
z2 e4 g2f3ed4c'2  | c'2ba b2ag a2gf g6 | \
w:  hep  *  mül  *  ve   |  gül    | 
z2 g2a4g2 f2e4d2  | 
w:  Ha yâl_ i  *  aşk   | 
z2d2 d4 d4 e4 dc | c4g2 a2g2 f2g2 a4  | \
w:  i çin  bül bül   |  *  fik ri  zik *  ri   | 
z2e4g2 f3e d4 c'2 | 
w:  hep  *  mül  *  ve   | 
c'2 bab2 aga2 gfg6  | z2g4a2 g2f2 e4 d2 | \
w:  gül    |  Dâ i mâ  *  yâ  | 
z2 d4 d2d2 _edgf edcB  | 
w:  ri  re fî *  *  ki   | 
c4 B2c2 d4 d4 e2 | d2 c2B2 A2G4c6  | \
w:  *  ge ce  de  gül   |  gün *  *  *  düz  sün  | 
cBA2 BAG2 AGF2 G6 | 
w:  bül    | 
z2 g4 a2g2 f2e4d2  | z2d4d2 d2_ed gfed cB | \
w:  Dâ i mâ  *  yâ  |  ri  re fî *  *  ki   | 
c4B2 c2d4d4e2  | 
w:  *  ge ce  de  gül   | 
d2c2 B2A2 G4 c6 | cB A2BA G2AG F2G6  | \
w:  gün *  *  *  düz  sün  |  bül    | 
G2G4A2 A4 A6 | 
w:  Gö nül *  dür  bu   | 
G3FE4B3AB4AG  | G4 g2a2 g2f2 e4 d2 | \
w:  ar *  zu  ey *  ler   |  *  lût fu nu *  zu   | 
d2 c2B2 A2G4c6  | 
w:  ri *  *  *  ca  ey  | 
cBA2 BAG2 AGF2 G6 | G2 G4 A2A4A6  | G3F E4 B3A B4 AG | 
w:  ler    |  Gö nül *  dür  bu   |  ar *  zu  ey *  ler   | 
G4g2 a2g2 f2e4d2  | d2c2 B2A2 G4 c6 | \
w:  *  lût fu nu *  zu   |  ri *  *  *  ca  ey  | 
cB A2BA G2AG F2G6  | 
w:  ler    | 
|


